media/costumes/M-glow.svg

<svg width="86" height="79" xmlns="http://www.w3.org/2000/svg"><path fill="#0CC" d="M85.11 56.947c0 .76-.08 1.51-.24 2.25-.05.33-.17 1.03-.35 2.11-.39 2.34-1.53 4.5-3.25 6.14-2.59 2.48-5.78 4.11-9.33 4.8-.65.35-1.5.8-2.61 1.41-.93.5-1.92.86-2.95 1.08-.1.03-.6.14-1.83.51-1.5.76-3.47 1.64-6.08 2.7-.45.19-.91.34-1.38.46-1.29.34-2.59.51-3.86.51-4.06 0-7.75-1.68-10.4-4.74-.51-.59-.95-1.23-1.33-1.91-.48-.21-.94-.44-1.4-.7-.62.22-1.26.43-1.91.6-.64.16-1.29.27-1.94.32-.66.05-1.66.15-2.99.3-2.4.34-4.98.79-7.7 1.35-1.86.69-4.27 1.46-7.32 2.35-.35.1-.71.18-1.07.25-1.97.36-4.08.34-6.28-.09-6.6-1.17-9.14-5.48-10.06-7.92-.43-1.14-.83-2.73-.83-4.68 0-1.01.11-2.12.38-3.31 1.18-5.42 5.75-7.91 8.04-9.14.99-.55 1.94-1 2.87-1.38.22-2.88.53-8.6.89-19.92v-1.02c-5.93-1.02-10.44-5.28-11.65-11.25-.58-2.75-.16-5.61 1.21-8.16 2.05-4 5.9-6.67 10.64-7.35.29-.04.59-.07.89-.09.85-.05 1.75-.12 2.68-.2 1.04-.09 2.73-.22 5.07-.4.16-.02.33-.02.49-.03.03 0 .06-.01.09-.01 3.5-.93 7.23-.59 10.7.99 1.4.63 2.65 1.56 3.67 2.71 1.21 1.35 2.3 3.13 3.91 6.34.09.19.18.38.26.57.24.55.49 1.14.77 1.77.02-.25.04-.52.06-.8l.03-.34c.73-6.74 5.92-11.7 13.23-12.64.61-.08 1.23-.11 1.84-.08 1.31.05 3.37.04 6.03-.01h.22c.92 0 2.75-.04 6.24-.23 3.4-.33 6.77.57 9.6 2.53 3.75 2.59 5.89 6.66 5.89 11.16 0 4.79-2.56 9.14-6.84 11.63a17.43 17.43 0 0 1-5.84 2.13c.18 1.31.4 2.82.66 4.5.82 4.61 1.48 8.8 1.96 12.5 5.22.91 10.33 4.52 11.05 11.24v.01c.05.39.07.79.07 1.18z"/><path fill="#FFF" d="M74.107 56.947c0-.058-.147.792-.44 2.551-1.35 1.291-3.05 1.994-5.102 2.111-.938.47-2.434 1.262-4.485 2.375-.822.176-2.083.527-3.782 1.056-1.115.646-3.109 1.555-5.981 2.727-1.35.352-2.405.088-3.167-.792-.235-1.641.674-3.048 2.727-4.222 1.7-.821 3.4-1.672 5.102-2.551-.586-10.028-1.877-19.703-3.87-29.027 0 .059-.059.147-.176.264-.703 6.041-1.818 14.632-3.343 25.772-.118.822-.527 2.054-1.231 3.694a7.407 7.407 0 0 1-.924.572c-.382.206-1.188.454-2.419.747-1.173.235-2.022-.352-2.551-1.759-.703-2.229-2.082-5.6-4.134-10.115-1.29-2.58-3.285-6.274-5.981-11.083-.88-1.466-1.877-3.431-2.99-5.894-1.584-3.519-2.522-5.57-2.815-6.157-.118.938-.234 3.021-.352 6.245-.059.703-.059 1.671 0 2.902v3.167c0 .411-.059 1.026-.176 1.847-.176.998-.264 1.672-.264 2.023-.06.998-.176 3.637-.352 7.916-.06 2.698-.06 4.341 0 4.926 0 .587.321.939.967 1.056.176 0 .528-.058 1.056-.176.528-.117.908-.205 1.144-.264.996-.058 2.111-.249 3.343-.572 1.231-.321 2.052-.483 2.463-.483.88 0 1.671.352 2.375 1.056.233.998.233 1.965 0 2.902-.88.822-1.994 1.407-3.343 1.76-.763.059-1.936.176-3.519.352a140.38 140.38 0 0 0-9.412 1.672c-1.642.646-4.076 1.438-7.3 2.374-.646.119-1.408.089-2.287-.088-1.056-.176-1.643-.497-1.76-.967-.176-.469-.176-1.056 0-1.76.058-.352.909-.968 2.551-1.848 1.056-.585 1.979-.98 2.771-1.188a89.21 89.21 0 0 1 2.33-.571c.586-.058 1.496-.205 2.728-.439.233-.117.409-.353.527-.704 0-1.465.029-3.371.088-5.718.352-3.576.704-10.965 1.056-22.166v-4.749a59.783 59.783 0 0 0-.352-7.829c-.235-.352-.499-.497-.792-.439-1.643.352-3.93.703-6.86 1.056-2.229.059-3.519-.85-3.871-2.728-.059-.233 0-.497.177-.791.409-.88 1.231-1.407 2.463-1.584.937-.058 1.92-.132 2.946-.22 1.025-.088 2.683-.22 4.97-.396.469 0 1.201-.088 2.199-.264 1.172-.41 2.403-.322 3.694.264.469.527 1.231 1.847 2.287 3.958 1.641 3.812 4.191 9.5 7.652 17.064.938 1.701 2.228 4.134 3.87 7.301 1.056 2.111 2.696 5.277 4.926 9.5.82-4.574 2.463-14.689 4.926-30.347.058-.176.234-2.199.528-6.069.176-1.641 1.407-2.608 3.694-2.902 1.465.059 3.694.059 6.685 0 1.583 0 3.958-.088 7.125-.264.88-.117 1.7.088 2.463.615.762.527 1.144 1.231 1.144 2.111 0 .879-.455 1.583-1.363 2.11a6.37 6.37 0 0 1-2.858.88c-.764-.352-1.672-.527-2.728-.527-2.287 0-4.516.294-6.685.879-.294.06-.411.734-.352 2.023 0 1.056.116 2.61.352 4.662.116.235.293.646.527 1.231.234 1.994.645 4.926 1.231 8.796.997 5.572 1.729 10.41 2.199 14.514.704 6.04 1.056 9.147 1.056 9.324.352.118 1.025-.117 2.023-.704a314.707 314.707 0 0 1 2.551-1.319c.585-.233 1.348-.352 2.287-.352 1.759.003 2.696.56 2.814 1.673z"/></svg>

<svg version="1.1" width="86" height="79" xmlns="http://www.w3.org/2000/svg" xmlns:xlink="http://www.w3.org/1999/xlink">
  <!-- Exported by Scratch - http://scratch.mit.edu/ -->
  <g id="ID0.4179182550869882">
    <g id="ID0.39747882168740034">
      <g id="ID0.6909618563950062">
        <path id="ID0.2610861910507083" fill="#00CCCC" d="M 85.110 56.947 C 85.110 57.707 85.030 58.457 84.870 59.197 C 84.820 59.527 84.700 60.227 84.520 61.307 C 84.130 63.647 82.990 65.807 81.270 67.447 C 78.680 69.927 75.490 71.557 71.940 72.247 C 71.290 72.597 70.440 73.047 69.330 73.657 C 68.400 74.157 67.410 74.517 66.380 74.737 C 66.280 74.767 65.780 74.877 64.550 75.247 C 63.050 76.007 61.080 76.887 58.470 77.947 C 58.020 78.137 57.560 78.287 57.090 78.407 C 55.800 78.747 54.500 78.917 53.230 78.917 C 49.170 78.917 45.480 77.237 42.830 74.177 C 42.320 73.587 41.880 72.947 41.500 72.267 C 41.020 72.057 40.560 71.827 40.100 71.567 C 39.480 71.787 38.840 71.997 38.190 72.167 C 37.550 72.327 36.900 72.437 36.250 72.487 C 35.590 72.537 34.590 72.637 33.260 72.787 C 30.860 73.127 28.280 73.577 25.560 74.137 C 23.700 74.827 21.290 75.597 18.240 76.487 C 17.890 76.587 17.530 76.667 17.170 76.737 C 15.200 77.097 13.090 77.077 10.890 76.647 C 4.290 75.477 1.750 71.167 0.830 68.727 C 0.400 67.587 0 65.997 0 64.047 C 0 63.037 0.110 61.927 0.380 60.737 C 1.560 55.317 6.130 52.827 8.420 51.597 C 9.410 51.047 10.360 50.597 11.290 50.217 C 11.510 47.337 11.820 41.617 12.180 30.297 L 12.180 29.277 C 6.250 28.257 1.740 23.997 0.530 18.027 C -0.050 15.277 0.370 12.417 1.740 9.867 C 3.790 5.867 7.640 3.197 12.380 2.517 C 12.670 2.477 12.970 2.447 13.270 2.427 C 14.120 2.377 15.020 2.307 15.950 2.227 C 16.990 2.137 18.680 2.007 21.020 1.827 C 21.180 1.807 21.350 1.807 21.510 1.797 C 21.540 1.797 21.570 1.787 21.600 1.787 C 25.100 0.857 28.830 1.197 32.300 2.777 C 33.700 3.407 34.950 4.337 35.970 5.487 C 37.180 6.837 38.270 8.617 39.880 11.827 C 39.970 12.017 40.060 12.207 40.140 12.397 C 40.380 12.947 40.630 13.537 40.910 14.167 C 40.930 13.917 40.950 13.647 40.970 13.367 C 40.980 13.257 40.990 13.137 41 13.027 C 41.730 6.287 46.920 1.327 54.230 0.387 C 54.840 0.307 55.460 0.277 56.070 0.307 C 57.380 0.357 59.440 0.347 62.100 0.297 L 62.320 0.297 C 63.240 0.297 65.070 0.257 68.560 0.067 C 71.960 -0.263 75.330 0.637 78.160 2.597 C 81.910 5.187 84.050 9.257 84.050 13.757 C 84.050 18.547 81.490 22.897 77.210 25.387 C 75.370 26.457 73.410 27.167 71.370 27.517 C 71.550 28.827 71.770 30.337 72.030 32.017 C 72.850 36.627 73.510 40.817 73.990 44.517 C 79.210 45.427 84.320 49.037 85.040 55.757 L 85.040 55.767 C 85.090 56.157 85.110 56.557 85.110 56.947 Z "/>
      </g>
    </g>
    <g id="ID0.2625720859505236">
      <path id="ID0.3031658115796745" fill="#FFFFFF" d="M 74.107 56.947 C 74.107 56.889 73.960 57.739 73.667 59.498 C 72.317 60.789 70.617 61.492 68.565 61.609 C 67.627 62.079 66.131 62.871 64.080 63.984 C 63.258 64.160 61.997 64.511 60.298 65.040 C 59.183 65.686 57.189 66.595 54.317 67.767 C 52.967 68.119 51.912 67.855 51.150 66.975 C 50.915 65.334 51.824 63.927 53.877 62.753 C 55.577 61.932 57.277 61.081 58.979 60.202 C 58.393 50.174 57.102 40.499 55.109 31.175 C 55.109 31.234 55.050 31.322 54.933 31.439 C 54.230 37.480 53.115 46.071 51.590 57.211 C 51.472 58.033 51.063 59.265 50.359 60.905 C 50.125 61.081 49.816 61.272 49.435 61.477 C 49.053 61.683 48.247 61.931 47.016 62.224 C 45.843 62.459 44.994 61.872 44.465 60.465 C 43.762 58.236 42.383 54.865 40.331 50.350 C 39.041 47.770 37.046 44.076 34.350 39.267 C 33.470 37.801 32.473 35.836 31.360 33.373 C 29.776 29.854 28.838 27.803 28.545 27.216 C 28.427 28.154 28.311 30.237 28.193 33.461 C 28.134 34.164 28.134 35.132 28.193 36.363 C 28.193 38.006 28.193 39.061 28.193 39.530 C 28.193 39.941 28.134 40.556 28.017 41.377 C 27.841 42.375 27.753 43.049 27.753 43.400 C 27.693 44.398 27.577 47.037 27.401 51.316 C 27.341 54.014 27.341 55.657 27.401 56.242 C 27.401 56.829 27.722 57.181 28.368 57.298 C 28.544 57.298 28.896 57.240 29.424 57.122 C 29.952 57.005 30.332 56.917 30.568 56.858 C 31.564 56.800 32.679 56.609 33.911 56.286 C 35.142 55.965 35.963 55.803 36.374 55.803 C 37.254 55.803 38.045 56.155 38.749 56.859 C 38.982 57.857 38.982 58.824 38.749 59.761 C 37.869 60.583 36.755 61.168 35.406 61.521 C 34.643 61.580 33.470 61.697 31.887 61.873 C 28.954 62.284 25.818 62.841 22.475 63.545 C 20.833 64.191 18.399 64.983 15.175 65.919 C 14.529 66.038 13.767 66.008 12.888 65.831 C 11.832 65.655 11.245 65.334 11.128 64.864 C 10.952 64.395 10.952 63.808 11.128 63.104 C 11.186 62.752 12.037 62.136 13.679 61.256 C 14.735 60.671 15.658 60.276 16.450 60.068 C 17.241 59.864 18.017 59.672 18.780 59.497 C 19.366 59.439 20.276 59.292 21.508 59.058 C 21.741 58.941 21.917 58.705 22.035 58.354 C 22.035 56.889 22.064 54.983 22.123 52.636 C 22.475 49.060 22.827 41.671 23.179 30.470 L 23.179 25.721 C 23.237 23.200 23.120 20.590 22.827 17.892 C 22.592 17.540 22.328 17.395 22.035 17.453 C 20.392 17.805 18.105 18.156 15.175 18.509 C 12.946 18.568 11.656 17.659 11.304 15.781 C 11.245 15.548 11.304 15.284 11.481 14.990 C 11.890 14.110 12.712 13.583 13.944 13.406 C 14.881 13.348 15.864 13.274 16.890 13.186 C 17.915 13.098 19.573 12.966 21.860 12.790 C 22.329 12.790 23.061 12.702 24.059 12.526 C 25.231 12.116 26.462 12.204 27.753 12.790 C 28.222 13.317 28.984 14.637 30.040 16.748 C 31.681 20.560 34.231 26.248 37.692 33.812 C 38.630 35.513 39.920 37.946 41.562 41.113 C 42.618 43.224 44.258 46.390 46.488 50.613 C 47.308 46.039 48.951 35.924 51.414 20.266 C 51.472 20.090 51.648 18.067 51.942 14.197 C 52.118 12.556 53.349 11.589 55.636 11.295 C 57.101 11.354 59.330 11.354 62.321 11.295 C 63.904 11.295 66.279 11.207 69.446 11.031 C 70.326 10.914 71.146 11.119 71.909 11.646 C 72.671 12.173 73.053 12.877 73.053 13.757 C 73.053 14.636 72.598 15.340 71.690 15.867 C 70.780 16.395 69.828 16.689 68.832 16.747 C 68.068 16.395 67.160 16.220 66.104 16.220 C 63.817 16.220 61.588 16.514 59.419 17.099 C 59.125 17.159 59.008 17.833 59.067 19.122 C 59.067 20.178 59.183 21.732 59.419 23.784 C 59.535 24.019 59.712 24.430 59.946 25.015 C 60.180 27.009 60.591 29.941 61.177 33.811 C 62.174 39.383 62.906 44.221 63.376 48.325 C 64.080 54.365 64.432 57.472 64.432 57.649 C 64.784 57.767 65.457 57.532 66.455 56.945 C 67.920 56.183 68.770 55.744 69.006 55.626 C 69.591 55.393 70.354 55.274 71.293 55.274 C 73.052 55.277 73.989 55.834 74.107 56.947 Z "/>
    </g>
  </g>
</svg>
